pieces/companion/kb.svg

<svg viewBox="0 0 64 64" xmlns="http://www.w3.org/2000/svg"><g transform="translate(0 -16)"><path d="m24.251 23.212c5.1803-.0034 10.361-.0035 15.543.000028.00073 3.8659-.0012 7.7317-.000504 11.598 3.0216-1.9377 6.4833-3.5925 10.181-3.1705 4.6486.22884 9.001 4.2058 8.9365 8.9979-.05189 6.4587-4.2307 12.079-9.0592 16.001-.29108 4.4114-.52099 8.8265-.77138 13.241-4.122 4.066-10.268 4.083-15.67 4.199-5.039-.058-10.312.187-15.052-1.803-1.454-.735-3.349-1.72-3.425-3.568-.366-4.021-.449-8.063-.747-12.089-4.9104-3.827-8.893-9.555-9.0969-15.94-.12525-4.8497 4.3546-8.797 9.011-9.046 3.6822-.38832 7.133 1.252 10.15 3.1812-.0012-3.8671-.0031-7.7339-.000266-11.601z" fill="#fff" stroke="#000" stroke-miterlimit="10" stroke-width=".091563"/><path d="m24.247 23.21c-.0028 3.867-.0012 7.7445 0 11.612-3.0171-1.9292-6.4693-3.5821-10.152-3.1938-4.6564.24897-9.1362 4.2068-9.0109 9.0566.20388 6.3846 4.1921 12.097 9.1022 15.923.29804 4.0264.38623 8.0695.75281 12.091.07566 1.8476 1.9684 2.847 3.4219 3.5816 4.74 1.9906 10.017 1.7449 15.056 1.8022 5.4018-.11588 11.55-.13156 15.672-4.1975.25039-4.4141.46173-8.8427.75281-13.254 4.8285-3.9219 9.0275-9.5329 9.0794-15.992.0645-4.7921-4.2939-8.7593-8.9425-8.9881-3.6981-.42192-7.1527 1.2333-10.174 3.1709-.00073-3.8661.00073-7.7456 0-11.612-5.182-.0035-10.378-.0034-15.558 0zm7.414 14.577c1.6991-.14181 3.5643 1.0064 3.6044 2.8288.37721 2.6895-3.3058 4.2914-5.2697 2.6462-1.6987-1.0483-1.6329-3.8839.09125-4.8819.45807-.35819 1.0077-.54585 1.5741-.59312z"/><g fill="#fff"><path d="m26.188 26.652c.60675-.77075 1.2178-1.54 1.8332-2.3079 1.3536 1.1234 2.6804 2.2807 3.9979 3.4505 1.3171-1.1691 2.6454-2.3261 4.0048-3.45.60888.76725 1.2188 1.536 1.8297 2.3062-1.1547 1.0497-2.3132 2.0954-3.4676 3.1403 1.2099 1.1044 2.4189 2.2123 3.6138 3.3383-.47912.55045-1.4374 1.6514-1.9165 2.2018-1.3681-1.1422-2.7182-2.3053-4.0577-3.476-1.349 1.1672-2.7002 2.3297-4.0671 3.472-.47882-.5494-1.4365-1.6482-1.9153-2.1976 1.1896-1.1265 2.3984-2.2344 3.6144-3.3369-1.1614-1.0452-2.3169-2.0913-3.4696-3.1409z" stroke="#fff" stroke-miterlimit="10" stroke-width=".091563"/><path d="m26.188 26.652c.60675-.77075 1.2178-1.54 1.8332-2.3079 1.3536 1.1234 2.6804 2.2807 3.9979 3.4505 1.3171-1.1691 2.6454-2.3261 4.0048-3.45.60888.76725 1.2188 1.536 1.8297 2.3062-1.1547 1.0497-2.3132 2.0954-3.4676 3.1403 1.2099 1.1044 2.4189 2.2123 3.6138 3.3383-.47912.55045-1.4374 1.6514-1.9165 2.2018-1.3681-1.1422-2.7182-2.3053-4.0577-3.476-1.349 1.1672-2.7002 2.3297-4.0671 3.472-.47882-.5494-1.4365-1.6482-1.9153-2.1976 1.1896-1.1265 2.3984-2.2344 3.6144-3.3369-1.1614-1.0452-2.3169-2.0913-3.4696-3.1409z"/><path d="m11.969 43.425c.12617-3.6967 4.7438-4.7081 7.5949-3.5035 5.2878 1.6878 7.9041 7.0639 9.7471 11.873 1.8226-.02068 3.6489-.0381 5.4765-.07148 1.7471-4.8299 4.5631-9.9668 9.6856-11.798 2.8366-1.2334 7.4771-.18234 7.5989 3.5044-.15087 4.1228-2.7073 7.6549-5.8075 10.171.76614 1.1028 1.308 2.3076 1.2627 3.6862-4.6805-.98837-9.3308-2.3026-14.147-2.3947-5.7315-.30498-11.315 1.1586-16.854 2.3945-.06131-1.38.46414-2.5865 1.2725-3.6716-3.1263-2.5056-5.7089-6.0467-5.83-10.19z" stroke="#fff" stroke-miterlimit="10" stroke-width=".091563"/><path d="m11.969 43.425c.12617-3.6967 4.7438-4.7081 7.5949-3.5035 5.2878 1.6878 7.9041 7.0639 9.7471 11.873 1.8226-.02068 3.6489-.0381 5.4765-.07148 1.7471-4.8299 4.5631-9.9668 9.6856-11.798 2.8366-1.2334 7.4771-.18234 7.5989 3.5044-.15087 4.1228-2.7073 7.6549-5.8075 10.171.76614 1.1028 1.308 2.3076 1.2627 3.6862-4.6805-.98837-9.3308-2.3026-14.147-2.3947-5.7315-.30498-11.315 1.1586-16.854 2.3945-.06131-1.38.46414-2.5865 1.2725-3.6716-3.1263-2.5056-5.7089-6.0467-5.83-10.19z"/><path d="m15.989 45.201c-.21739-1.5777 1.2565-2.2198 2.5729-1.6957 3.8606.96406 5.613 4.9743 7.0888 8.2691-1.5422.25536-3.0846.50107-4.6269.72704-1.792-2.3361-4.0877-4.4426-5.0349-7.3004z" stroke="#000" stroke-miterlimit="10" stroke-width=".091563"/></g><path d="m15.989 45.201c-.21739-1.5777 1.2565-2.2198 2.5729-1.6957 3.8606.96406 5.613 4.9743 7.0888 8.2691-1.5422.25536-3.0846.50107-4.6269.72704-1.792-2.3361-4.0877-4.4426-5.0349-7.3004z"/><path d="m38.389 51.757c1.5118-3.4863 3.4545-8.0172 7.811-8.3992 1.5578-.47071 2.2422 1.4176 1.615 2.5473-1.1408 2.51-3.1375 4.4841-4.8416 6.6085-1.5333-.24001-3.0585-.50374-4.5845-.75654z" fill="#fff" stroke="#000" stroke-miterlimit="10" stroke-width=".091563"/><path d="m38.389 51.757c1.5118-3.4863 3.4545-8.0172 7.811-8.3992 1.5578-.47071 2.2422 1.4176 1.615 2.5473-1.1408 2.51-3.1375 4.4841-4.8416 6.6085-1.5333-.24001-3.0585-.50374-4.5845-.75654z"/><g fill="#fff"><path d="m29.166 58.43c1.6649-1.0956 3.9704-1.0813 5.6671-.05217 1.5166 3.4202-6.9885 3.4832-5.6671.05217z" stroke="#fff" stroke-miterlimit="10" stroke-width=".091563"/><path d="m29.166 58.43c1.6649-1.0956 3.9704-1.0813 5.6671-.05217 1.5166 3.4202-6.9885 3.4832-5.6671.05217z"/><path d="m16.688 62.62c.3162-2.4013 2.7807-2.1975 4.5567-1.972-1.1173 1.4458-2.8044 1.9299-4.5567 1.972z" stroke="#fff" stroke-miterlimit="10" stroke-width=".091563"/><path d="m16.688 62.62c.3162-2.4013 2.7807-2.1975 4.5567-1.972-1.1173 1.4458-2.8044 1.9299-4.5567 1.972z"/><path d="m42.913 61.581c1.2712-1.8245 4.4453-1.2977 4.2345 1.231-1.4313-.35228-2.845-.75434-4.2345-1.231z" stroke="#fff" stroke-miterlimit="10" stroke-width=".091563"/><path d="m42.913 61.581c1.2712-1.8245 4.4453-1.2977 4.2345 1.231-1.4313-.35228-2.845-.75434-4.2345-1.231z"/><path d="m17.384 66.302c3.7184-2.1643 8.2128-1.91 12.363-2.2221 5.7726-.002 11.866-.23518 17.23 2.2434-.45755.39137-1.3726 1.1741-1.8302 1.5655-7.6695-1.7778-15.774-2.0866-23.504-.52653-1.5942.23278-4.0333 1.4443-4.2596-1.0603z" stroke="#fff" stroke-miterlimit="10" stroke-width=".091563"/><path d="m17.384 66.302c3.7184-2.1643 8.2128-1.91 12.363-2.2221 5.7726-.002 11.866-.23518 17.23 2.2434-.45755.39137-1.3726 1.1741-1.8302 1.5655-7.6695-1.7778-15.774-2.0866-23.504-.52653-1.5942.23278-4.0333 1.4443-4.2596-1.0603z"/></g></g><g fill="#333" stroke="#000" stroke-width=".987802"><path d="m24.31784 57.659317c-3.942478-.555209-6.929626-1.704177-8.367038-3.21827-.884423-.931607-1.041791-2.02377-1.399575-9.713275l-.191368-4.112903-1.487059-1.283834c-4.4438389-3.836532-7.6436502-10.025882-7.6613116-14.819167-.0116107-3.151149 2.1962334-6.277801 5.5349916-7.838413 1.694143-.791881 2.120357-.877067 4.338983-.867223 2.748235.01219 4.451336.500455 7.400987 2.121787.947128.520606 1.778867.946557 1.848309.946557.06944 0 .126258-2.623729.126258-5.830508v-5.8305087h7.59322 7.593221v5.8305087c0 3.206779.05682 5.830508.126259 5.830508.06944 0 .901179-.425951 1.848309-.946557 3.430668-1.885733 6.129103-2.496477 9.002215-2.037495 2.301077.367599 3.719206 1.071672 5.384103 2.673104 2.317023 2.228696 3.093158 4.58324 2.617142 7.939582-.59274 4.179368-2.771458 8.105864-6.617432 11.925972l-2.296754 2.281307-.373505 6.592708-.373502 6.592705-.79401.641983c-1.275769 1.031498-3.345708 1.980333-5.675368 2.601518-1.902937.507404-3.052455.589023-9.355932.664301-3.952542.0472-7.922057-.01776-8.821143-.144387zm-1.077162-6.412865c1.925286-.387827 3.757791-.493316 8.677966-.499556 5.429231-.0069 6.705492.07664 9.851287.644754l3.613998.65267.948928-.948927.948927-.948931-2.136634-.706164c-3.045917-1.006687-5.013134-1.287596-10.243455-1.462706-7.511398-.251485-13.811581.392198-16.750314 1.711363-.836615.375547-.990128.561149-.848166 1.025469.446131 1.459173 1.061211 1.514289 5.937463.532028zm23.330831-6.263605c-.959758-.825551-2.328461-.811454-3.311485.03411l-.756659.650853 2.029674.59319c1.11632.326257 2.151707.624374 2.300859.662487.149153.03811.312459-.244174.362905-.627298.06447-.4897-.12124-.879769-.625294-1.313337zm-26.895584 1.105508c1.002204-.507308 1.802041-1.17002 1.802041-1.493098 0-.345245-2.932362-.275143-3.611048.08633-.772444.411406-1.250933 1.050543-1.261683 1.68528-.0075.445166.131437.486839 1.104588.331224.612267-.0979 1.497013-.372285 1.966102-.609733zm14.154017-1.303425c.962804-.402286 1.491859-1.258446 1.279482-2.070573-.264497-1.011439-3.096911-1.594989-4.802108-.989354-1.366373.485294-1.716707 1.016676-1.289068 1.955241.608215 1.334888 2.965489 1.876079 4.811694 1.104686zm-13.366931-4.193611c9.101731-2.00659 13.548761-2.035935 22.330982-.147349 2.401782.516494 4.512396.939081 4.690256.939081.432852 0 .121742-1.764258-.50212-2.847458l-.468567-.813559 1.828027-1.938435c2.373424-2.516774 3.553969-4.91553 3.7159-7.550356.102099-1.661287.03613-2.020743-.523059-2.850192-.915404-1.357817-2.419154-2.025767-4.570642-2.03023-4.45751-.0092-9.000357 4.105989-11.592667 10.501465l-.740613 1.827168-2.594657.0033-2.594659.0033-.889763-2.155064c-1.118521-2.709132-3.137132-5.803878-4.763593-7.303097-1.440196-1.327528-4.052729-2.648019-5.739399-2.900951-2.651949-.397684-5.506228 1.074808-6.058415 3.125472-.643984 2.391574 1.070286 6.678724 3.806007 9.518296l1.641944 1.704276-.556275 1.293093c-.600759 1.396502-.720007 2.41289-.283094 2.41289.150249 0 1.889232-.356279 3.864407-.791732zm12.8043-12.764828c2.70604-1.028835 2.768841-4.75092.09819-5.819503-2.044424-.818016-4.003833.03851-4.593962 2.008191-.741461 2.474774 1.968519 4.772172 4.495773 3.811312zm-3.167921-10.062957 1.949735-1.653415 1.91631 1.653415c1.053968.909378 2.021136 1.653415 2.149258 1.653415.269169 0 1.905646-2.002997 1.905646-2.332449 0-.121276-.749361-.899116-1.665247-1.728536l-1.665251-1.508034 1.679038-1.622829 1.679037-1.622829-.885383-1.1519836c-.486959-.6335908-1.011808-1.1498621-1.16633-1.1472695-.154522.00259-1.115305.7379417-2.135075 1.634109l-1.854123 1.6293951-1.843188-1.6341089c-1.013753-.8987599-1.958973-1.634109-2.100488-1.634109-.274777 0-1.975193 2.0067279-1.975193 2.3310039 0 .106324.743479.866126 1.652176 1.68845l1.652176 1.495133-1.793538 1.649486-1.793537 1.649486.977411 1.152543c.537577.633898 1.065031 1.152542 1.172121 1.152542s1.07209-.744037 2.144445-1.653415z"/><path d="m19.159052 34.003417c-1.772711-2.195618-3.104815-4.427573-3.104815-5.20215 0-.658805.801439-1.248725 1.696462-1.248725 2.220101 0 4.766769 2.262054 6.67412 5.928223l1.11956 2.151934-1.716437.298905c-2.76611.481697-2.701711.508293-4.66889-1.928187z"/><path d="m40.003762 35.909179-1.406407-.256898.53938-1.258321c1.395704-3.256045 3.37323-5.665241 5.316706-6.477277 1.231007-.514347 2.774861-.549455 3.078347-.07.763134 1.205611-.05624 3.022212-2.949449 6.539064-1.668794 2.028513-1.720075 2.045576-4.578577 1.523435z"/></g></svg>

<svg width="64" height="64" viewBox="0 0 64 64" fill="none" xmlns="http://www.w3.org/2000/svg">
<path d="M24.251 7.212C29.4313 7.2086 34.612 7.2085 39.794 7.21202C39.7947 11.0779 39.7928 14.9437 39.7935 18.81C42.8151 16.8723 46.2768 15.2175 49.9745 15.6395C54.6231 15.8684 58.9755 19.8453 58.911 24.6374C58.8591 31.0961 54.6803 36.7164 49.8518 40.6384C49.5607 45.0498 49.3308 49.4649 49.0804 53.8794C44.9584 57.9454 38.8124 57.9624 33.4104 58.0784C28.3714 58.0204 23.0984 58.2654 18.3584 56.2754C16.9044 55.5404 15.0094 54.5554 14.9334 52.7074C14.5674 48.6864 14.4844 44.6444 14.1864 40.6184C9.27601 36.7914 5.29341 31.0634 5.08951 24.6784C4.96426 19.8287 9.44411 15.8814 14.1005 15.6324C17.7827 15.2441 21.2335 16.8844 24.2505 18.8136C24.2493 14.9465 24.2474 11.0797 24.2502 7.21262L24.251 7.212Z" fill="white" stroke="black" stroke-width="0.091563" stroke-miterlimit="10"/>
<path d="M24.247 7.20999C24.2442 11.077 24.2458 14.9545 24.247 18.822C21.2299 16.8928 17.7777 15.2399 14.095 15.6282C9.4386 15.8772 4.9588 19.835 5.0841 24.6848C5.28798 31.0694 9.2762 36.7818 14.1863 40.6078C14.4843 44.6342 14.5725 48.6773 14.9391 52.6988C15.0148 54.5464 16.9075 55.5458 18.361 56.2804C23.101 58.271 28.378 58.0253 33.417 58.0826C38.8188 57.9667 44.967 57.951 49.089 53.8851C49.3394 49.471 49.5507 45.0424 49.8418 40.6311C54.6703 36.7092 58.8693 31.0982 58.9212 24.6391C58.9857 19.847 54.6273 15.8798 49.9787 15.651C46.2806 15.2291 42.826 16.8843 39.8047 18.8219C39.804 14.9558 39.8054 11.0763 39.8047 7.20989C34.6227 7.20639 29.4267 7.20649 24.2467 7.20989L24.247 7.20999ZM31.661 21.787C33.3601 21.6452 35.2253 22.7934 35.2654 24.6158C35.6426 27.3053 31.9596 28.9072 29.9957 27.262C28.297 26.2137 28.3628 23.3781 30.0869 22.3801C30.545 22.0219 31.0946 21.8342 31.661 21.787L31.661 21.787Z" fill="black"/>
<path d="M26.188 10.652C26.7947 9.88125 27.4058 9.112 28.0212 8.3441C29.3748 9.4675 30.7016 10.6248 32.0191 11.7946C33.3362 10.6255 34.6645 9.4685 36.0239 8.3446C36.6328 9.11185 37.2427 9.8806 37.8536 10.6508C36.6989 11.7005 35.5404 12.7462 34.386 13.7911C35.5959 14.8955 36.8049 16.0034 37.9998 17.1294C37.5207 17.6798 36.5624 18.7808 36.0833 19.3312C34.7152 18.189 33.3651 17.0259 32.0256 15.8552C30.6766 17.0224 29.3254 18.1849 27.9585 19.3272C27.4797 18.7778 26.522 17.679 26.0432 17.1296C27.2328 16.0031 28.4416 14.8952 29.6576 13.7927C28.4962 12.7475 27.3407 11.7014 26.188 10.6518V10.652Z" fill="white" stroke="white" stroke-width="0.091563" stroke-miterlimit="10"/>
<path d="M26.188 10.652C26.7947 9.88125 27.4058 9.112 28.0212 8.3441C29.3748 9.4675 30.7016 10.6248 32.0191 11.7946C33.3362 10.6255 34.6645 9.4685 36.0239 8.3446C36.6328 9.11185 37.2427 9.8806 37.8536 10.6508C36.6989 11.7005 35.5404 12.7462 34.386 13.7911C35.5959 14.8955 36.8049 16.0034 37.9998 17.1294C37.5207 17.6798 36.5624 18.7808 36.0833 19.3312C34.7152 18.189 33.3651 17.0259 32.0256 15.8552C30.6766 17.0224 29.3254 18.1849 27.9585 19.3272C27.4797 18.7778 26.522 17.679 26.0432 17.1296C27.2328 16.0031 28.4416 14.8952 29.6576 13.7927C28.4962 12.7475 27.3407 11.7014 26.188 10.6518V10.652Z" fill="white"/>
<path d="M11.969 27.425C12.0952 23.7283 16.7128 22.7169 19.5639 23.9215C24.8517 25.6093 27.468 30.9854 29.311 35.7945C31.1336 35.7738 32.9599 35.7564 34.7875 35.723C36.5346 30.8931 39.3506 25.7562 44.4731 23.925C47.3097 22.6916 51.9502 23.7427 52.072 27.4294C51.9211 31.5522 49.3647 35.0843 46.2645 37.6004C47.0306 38.7032 47.5725 39.908 47.5272 41.2866C42.8467 40.2983 38.1964 38.984 33.3802 38.8919C27.6487 38.5869 22.0652 40.0505 16.5262 41.2864C16.4649 39.9064 16.9903 38.6999 17.7987 37.6148C14.6724 35.1092 12.0898 31.5681 11.9687 27.4248L11.969 27.425Z" fill="white" stroke="white" stroke-width="0.091563" stroke-miterlimit="10"/>
<path d="M11.969 27.425C12.0952 23.7283 16.7128 22.7169 19.5639 23.9215C24.8517 25.6093 27.468 30.9854 29.311 35.7945C31.1336 35.7738 32.9599 35.7564 34.7875 35.723C36.5346 30.8931 39.3506 25.7562 44.4731 23.925C47.3097 22.6916 51.9502 23.7427 52.072 27.4294C51.9211 31.5522 49.3647 35.0843 46.2645 37.6004C47.0306 38.7032 47.5725 39.908 47.5272 41.2866C42.8467 40.2983 38.1964 38.984 33.3802 38.8919C27.6487 38.5869 22.0652 40.0505 16.5262 41.2864C16.4649 39.9064 16.9903 38.6999 17.7987 37.6148C14.6724 35.1092 12.0898 31.5681 11.9687 27.4248L11.969 27.425Z" fill="white"/>
<path d="M15.989 29.201C15.7716 27.6233 17.2455 26.9812 18.5619 27.5053C22.4225 28.4694 24.1749 32.4796 25.6507 35.7744C24.1085 36.0298 22.5661 36.2755 21.0238 36.5014C19.2318 34.1653 16.9361 32.0588 15.9889 29.201L15.989 29.201Z" fill="white" stroke="black" stroke-width="0.091563" stroke-miterlimit="10"/>
<path d="M15.989 29.201C15.7716 27.6233 17.2455 26.9812 18.5619 27.5053C22.4225 28.4693 24.1749 32.4796 25.6507 35.7744C24.1085 36.0297 22.5661 36.2755 21.0238 36.5014C19.2318 34.1653 16.9361 32.0588 15.9889 29.201L15.989 29.201Z" fill="black"/>
<path d="M38.389 35.757C39.9008 32.2707 41.8435 27.7398 46.2 27.3578C47.7578 26.8871 48.4422 28.7754 47.815 29.9051C46.6742 32.4151 44.6775 34.3892 42.9734 36.5136C41.4401 36.2736 39.9149 36.0099 38.3889 35.7571L38.389 35.757Z" fill="white" stroke="black" stroke-width="0.091563" stroke-miterlimit="10"/>
<path d="M38.389 35.757C39.9008 32.2707 41.8435 27.7398 46.2 27.3578C47.7578 26.8871 48.4422 28.7754 47.815 29.9051C46.6742 32.4151 44.6775 34.3892 42.9734 36.5136C41.4401 36.2736 39.9149 36.0099 38.3889 35.7571L38.389 35.757Z" fill="black"/>
<path d="M29.166 42.43C30.8309 41.3344 33.1364 41.3487 34.8331 42.3778C36.3497 45.798 27.8446 45.861 29.166 42.43V42.43Z" fill="white" stroke="white" stroke-width="0.091563" stroke-miterlimit="10"/>
<path d="M29.166 42.43C30.8309 41.3344 33.1364 41.3487 34.8331 42.3778C36.3497 45.798 27.8446 45.861 29.166 42.43V42.43Z" fill="white"/>
<path d="M16.688 46.62C17.0042 44.2187 19.4687 44.4225 21.2447 44.648C20.1274 46.0938 18.4403 46.5779 16.688 46.62Z" fill="white" stroke="white" stroke-width="0.091563" stroke-miterlimit="10"/>
<path d="M16.688 46.62C17.0042 44.2187 19.4687 44.4225 21.2447 44.648C20.1274 46.0938 18.4403 46.5779 16.688 46.62Z" fill="white"/>
<path d="M42.913 45.581C44.1842 43.7565 47.3583 44.2833 47.1475 46.812C45.7162 46.4597 44.3025 46.0577 42.913 45.581Z" fill="white" stroke="white" stroke-width="0.091563" stroke-miterlimit="10"/>
<path d="M42.913 45.581C44.1842 43.7565 47.3583 44.2833 47.1475 46.812C45.7162 46.4597 44.3025 46.0577 42.913 45.581Z" fill="white"/>
<path d="M17.384 50.302C21.1024 48.1377 25.5968 48.392 29.747 48.0799C35.5196 48.0779 41.613 47.8447 46.977 50.3233C46.5194 50.7147 45.6044 51.4974 45.1468 51.8888C37.4773 50.111 29.3728 49.8022 21.6428 51.3623C20.0486 51.595 17.6095 52.8066 17.3832 50.302L17.384 50.302Z" fill="white" stroke="white" stroke-width="0.091563" stroke-miterlimit="10"/>
<path d="M17.384 50.302C21.1024 48.1377 25.5968 48.392 29.747 48.0799C35.5196 48.0779 41.613 47.8447 46.977 50.3233C46.5194 50.7147 45.6044 51.4974 45.1468 51.8888C37.4773 50.111 29.3728 49.8022 21.6428 51.3623C20.0486 51.595 17.6095 52.8066 17.3832 50.302L17.384 50.302Z" fill="white"/>
<path d="M24.3178 57.6593C20.3754 57.1041 17.3882 55.9551 15.9508 54.4411C15.0664 53.5094 14.909 52.4173 14.5512 44.7278L14.3599 40.6149L12.8728 39.331C8.42896 35.4945 5.22915 29.3052 5.21149 24.5119C5.19988 21.3607 7.40772 18.2341 10.7465 16.6735C12.4406 15.8816 12.8668 15.7964 15.0855 15.8062C17.8337 15.8184 19.5368 16.3067 22.4864 17.928C23.4336 18.4486 24.2653 18.8746 24.3348 18.8746C24.4042 18.8746 24.461 16.2509 24.461 13.0441V7.21356H32.0542H39.6475V13.0441C39.6475 16.2509 39.7043 18.8746 39.7737 18.8746C39.8432 18.8746 40.6749 18.4486 41.622 17.928C45.0527 16.0423 47.7511 15.4315 50.6242 15.8905C52.9253 16.2581 54.3434 16.9622 56.0083 18.5636C58.3254 20.7923 59.1015 23.1469 58.6255 26.5032C58.0327 30.6826 55.854 34.6091 52.0081 38.4292L49.7113 40.7105L49.3378 47.3032L48.9643 53.8959L48.1703 54.5379C46.8945 55.5694 44.8246 56.5182 42.4949 57.1394C40.592 57.6468 39.4425 57.7284 33.139 57.8037C29.1864 57.8509 25.2169 57.7859 24.3178 57.6593V57.6593ZM23.2407 51.2465C25.166 50.8586 26.9985 50.7531 31.9186 50.7469C37.3479 50.74 38.6241 50.8235 41.7699 51.3917L45.3839 52.0443L46.3329 51.0954L47.2818 50.1465L45.1451 49.4403C42.0992 48.4336 40.132 48.1527 34.9017 47.9776C27.3903 47.7261 21.0901 48.3698 18.1514 49.689C17.3148 50.0645 17.1613 50.2501 17.3032 50.7144C17.7493 52.1736 18.3644 52.2287 23.2407 51.2465V51.2465ZM46.5715 44.9828C45.6118 44.1573 44.243 44.1714 43.26 45.017L42.5034 45.6678L44.533 46.261C45.6494 46.5873 46.6847 46.8854 46.8339 46.9235C46.983 46.9616 47.1464 46.6793 47.1968 46.2962C47.2613 45.8065 47.0756 45.4164 46.5715 44.9829V44.9828ZM19.6759 46.0884C20.6781 45.5811 21.478 44.9183 21.478 44.5953C21.478 44.25 18.5456 44.3201 17.8669 44.6816C17.0945 45.093 16.616 45.7321 16.6052 46.3669C16.5977 46.812 16.7367 46.8537 17.7098 46.6981C18.3221 46.6002 19.2068 46.3258 19.6759 46.0884V46.0884ZM33.8299 44.7849C34.7927 44.3826 35.3218 43.5265 35.1094 42.7144C34.8449 41.7029 32.0125 41.1194 30.3073 41.725C28.9409 42.2103 28.5906 42.7417 29.0182 43.6802C29.6265 45.0151 31.9837 45.5563 33.8299 44.7849ZM20.463 40.5913C29.5647 38.5847 34.0118 38.5554 42.794 40.444C45.1958 40.9605 47.3064 41.3831 47.4842 41.3831C47.9171 41.3831 47.606 39.6188 46.9821 38.5356L46.5136 37.722L48.3416 35.7836C50.715 33.2668 51.8956 30.8681 52.0575 28.2332C52.1596 26.572 52.0936 26.2125 51.5344 25.3831C50.619 24.0252 49.1153 23.3573 46.9638 23.3528C42.5063 23.3436 37.9634 27.4588 35.3711 33.8543L34.6305 35.6815L32.0358 35.6848L29.4412 35.6881L28.5514 33.533C27.4329 30.8239 25.4143 27.7291 23.7878 26.2299C22.3476 24.9024 19.7351 23.5819 18.0484 23.3289C15.3965 22.9313 12.5422 24.4038 11.99 26.4544C11.346 28.846 13.0603 33.1331 15.796 35.9727L17.438 37.677L16.8817 38.9701C16.2809 40.3666 16.1617 41.383 16.5986 41.383C16.7489 41.383 18.4878 41.0267 20.463 40.5912V40.5913ZM33.2673 27.8265C35.9733 26.7977 36.0362 23.0756 33.3655 22.007C31.3211 21.189 29.3617 22.0455 28.7715 24.0152C28.0301 26.49 30.7401 28.7874 33.2673 27.8265V27.8265ZM30.0994 17.7635L32.0491 16.1101L33.9654 17.7635C35.0194 18.6729 35.9866 19.417 36.1147 19.417C36.3839 19.417 38.0203 17.414 38.0203 17.0845C38.0203 16.9632 37.271 16.1854 36.3551 15.356L34.6898 13.8479L36.3689 12.2251L38.0479 10.6023L37.1625 9.45029C36.6756 8.8167 36.1507 8.30043 35.9962 8.30302C35.8417 8.30561 34.8809 9.04096 33.8611 9.93713L32.007 11.5665L30.1638 9.93242C29.1501 9.03366 28.2048 8.29831 28.0633 8.29831C27.7886 8.29831 26.0881 10.305 26.0881 10.6293C26.0881 10.7356 26.8316 11.4954 27.7403 12.3178L29.3925 13.8129L27.5989 15.4624L25.8054 17.1119L26.7828 18.2644C27.3204 18.8983 27.8479 19.417 27.9549 19.417C28.062 19.417 29.027 18.6729 30.0994 17.7635Z" fill="#333333" stroke="black" stroke-width="0.987802"/>
<path d="M19.159 34.0034C17.3863 31.8078 16.0542 29.5759 16.0542 28.8013C16.0542 28.1425 16.8557 27.5526 17.7507 27.5526C19.9708 27.5526 22.5175 29.8146 24.4248 33.4808L25.5444 35.6327L23.8279 35.9316C21.0618 36.4133 21.1262 36.4399 19.159 34.0034V34.0034Z" fill="#333333" stroke="black" stroke-width="0.987802"/>
<path d="M40.0038 35.9092L38.5974 35.6523L39.1367 34.394C40.5324 31.1379 42.51 28.7287 44.4534 27.9167C45.6844 27.4023 47.2283 27.3672 47.5318 27.8467C48.2949 29.0523 47.4755 30.8689 44.5823 34.3857C42.9135 36.4143 42.8623 36.4313 40.0038 35.9092V35.9092Z" fill="#333333" stroke="black" stroke-width="0.987802"/>
</svg>
